X:1
L:1/8
M:9/8
K:Emin
""Em"" vB2 E E2 F G2 A | vB2 e ece""D"" dBA |""Em""{c} vB2 E E2 F G2 A | vB=cB""A"" A2 G""D"" FED | 
""Em""{Bc} vB2 E E2 F G2 A | vB2 e""A""{f} ece""D"" dBA |""Em"" vB2 E E2 F G2 A | vB{d}=cB""A"" A2 G""D"" FED | 
""Em"" vg2 ue vefe ue2 f | vg3 uevfug""D"" vaufvd |""Em"" ug2 ve uevfue ve2 uc |""G"" vd2 B""D""{c} ABG FED | 
""Em"" vg2 ue veufve ue2 f |{gagf} vg3 efg""D"" afd |""Em"" ugvfug""D"" vaufvd""Em"" ug2 e | 
""G"" vd2 B ABG FED :|
